X: 154
M: C|
L: 1/8
K: F
f- |\
fcAc fcaf | cfaf T(gfg).a | fcAc fcag | fcdB AF-Ff |
fcAc fcaf | cfaf T(gfg).a | bagf dfcf | BGdB AF-F |]

